!!!!SEGMENT: pl-wtm--r-2519--007_hertz-michal--kanon.krn
!!!cenid: 18xx:3091
!!!COM: Hertz, Michał
!!!COM-rismid: pe41023359
!!!CDT: 1844/09/28-~1918
!!!CNT: Polish
!!!OTL: Kanon [7]
!!!PDT:
!!!AGN:
!!!SMS-siglum: PL-Wtm
!!!SMS-shelfmark: R 2519
!!!SMS-shelfwork: 007 W
!!!SMS-variant:
!!!SMS-altvar:
!!!NIFC-rismid: 1001082119
!!!URL-scan: http://repozytorium.nifc.pl/skany/pl-wtm-nut--r2519
!!!ONB-nifc: UWAGA: 9 Kanonów num. 001-009. Skan 0012-0013 (Canon in d. 4)
**kern	**kern
*part1	*part1
*staff2	*staff1
*I"Fortepian	*I"Fortepian
*>[A,B,B1,B,B2,C,D,D1,D,D2,E	*
*>A	*>A
*clefF4	*clefG2
*k[b-e-]	*k[b-e-]
*C:	*C:
*M3/4	*M3/4
=1	=1
4F\	2.r
4.d\	.
8c\	.
=2!|:	=2!|:
*>B	*>B
*	*^
!	!LO:TX:b:t=I:color=grey	!LO:TX:a:t=2:color=grey
8d\L	4b-\@	4bb-\@
8c\	.	.
8B-\	4.gg\	2ryy
8A\	.	.
8G\	.	.
8A\J	8ff\	.
*	*v	*v
=3	=3
4B-\	8gg/L
.	8ff/
4.g>\	8ee-/
.	8dd/
.	8cc/
8f>\	8dd/J
=4	=4
8g>\L	4ee-/
8f>\	.
8e->\	4.ccc/
8d>\	.
8c>\	.
8d>\J	8bb-/
=5	=5
4en>\	8ccc/L
.	8bb-/
8f>\L	8aa/
8e>\J	8gg/
4d>\	8ff/
.	8gg/J
=6	=6
8c>\L	4aa/
8d>\	.
8en>\	8bb-/L
8f>\	8aa/J
8g>\	4gg/
8cc>\J	.
=7	=7
8a>\L	8ff/L
8g>\J	8gg/
4f>\	8aa/
.	8bb-/
8en>\L	8ccc/
8d>\J	8fff/J
=8	=8
!	!LO:TX:t=P:problem:pierwsza volta dopisana ołówkiem
8f>\L	8ddd/L
!LO:TX:t=P:problem:kasownik zamazany ołówkiem	!
8en>\	8ccc/J
8d>\	4bb-/
8e>\	.
8f>\	8aa/L
8e>\J	8gg/J
!!LO:PB:g=original
=9	=9
!!LO:TX:a:t=I
*>B1	*>B1
4f>\	8b-/L
.	8a/
4.d>\	8g/
.	8a/
.	8b-/
8c>\	8a/J
=10:|!	=10:|!
!!LO:TX:a:t=II
*>B2	*>B2
4B->\	8b-/L
.	8a/
4.d>\	8g/
.	8a/
.	8b-/
!LO:ACC:color=grey	!
8An>\	8a/J
=11	=11
*>C	*>C
8G\L	4ee-/
8A\	.
!LO:TX:a:t=P:problem:♮ above	!
!LO:ACC:color=grey	!
8Bn\	4.gg/
8c\J	.
4B\	.
.	8dd 8bn@/
=12	=12
!LO:ACC:color=grey	!
4A-X\	8cc\L
.	8dd\
!LO:T:color=grey	!LO:TX:a:t=2:color=grey
[4G\	8ee-\
.	8ff\J
8G\L]	4ee-\
8F#X\J	.
=13	=13
8G\L	4dd\
8Fn\	.
8E-\	[4cc\
8D\	.
8C\	8cc\L]
8D\J	8bn\J
=14	=14
4E-\	8cc\L
.	8b-X\
4.F\	8a\
.	8g\
.	8f\
8B-\	8g\J
=15	=15
8c\L	4a/
8B-\	.
8G\	4.b-/
8F\	.
8E-\	.
8C\J	8ee-\
!!LO:LB:g=original
=16	=16
4AA/	8ff\L
.	8ee-\
4A\	8cc\
.	8b-\
8F\L	8a\
8D\J	8f\J
=17	=17
8F\L	4d\
8E-\	.
8D\	4dd\
8C\	.
8D\	8b-\L
8E-\J	8g\J
=18	=18
!LO:TX:a:i:t=Thema	!
4F\	8b-\L
.	8a\
4.d\	8g\
.	8f\
.	8g\
8c\	8a\J
=19	=19
8d\L	4b-\
8c\	.
8B-\	4.gg\
8A\	.
8G\	.
8A\J	8ff\
=20	=20
4B-\	8gg\L
.	8ff\
4.g>\	8ee-\
.	8dd\
.	8cc\
8f>\	8dd\J
=21	=21
8g>\L	4ee-\
8f>\	.
8e->\	4.ccc\
8d>\	.
8c>\	.
8d>\J	8bb-\
=22	=22
!LO:TX:t=P:problem:kasownik zamazany ołówkiem	!
4en>\	8ccc\L
.	8bb-\
8f>\L	8aa\
8e>\J	8gg\
4d>\	8ff\
.	8gg\J
!!LO:LB:g=original
=23	=23
8c>\L	4aa\
8d>\	.
8en>\	8bb-\L
8f>\	8aa\J
8g>\	4gg\
!	!LO:TX:t=P:problem:nieczytelny napis i kreska przez 3 takty ołówkiem
8cc>\J	.
=24	=24
8a>\L	8ff\L
8g>\J	8gg\
4f>\	8aa\
.	8bb-\
8e-X>\L	8ccc\
8d>\J	8fff\J
=25	=25
4B->\	8ddd/L
.	8ccc/
4d>\	8bb-/
.	8aa/
8e->\L	8gg/
8f>\J	8aa/J
=26	=26
*2\right	*
2.B->\	2.bb-/
=27||	=27||
*>D	*>D
*k[]	*k[]
*M3/4	*M3/4
2.r>	8cc\L
.	8dd\J
.	4ee\
.	4ff\
=28	=28
8g>\L	4gg/
8a>\J	.
4b>\	4.ff/
4cc>\	.
.	8ee/
=29	=29
4dd>\	8ff/L
.	8gg/J
4.cc>\	4aa/
.	4gg/
8b>\	.
=30	=30
8cc>\L	2.gg/
8dd>\J	.
4ee>\	.
4dd>\	.
!!LO:PB:g=original
=31	=31
2.dd>\	8ff/L
.	8gg/J
.	4aa/
.	4gg/
=32	=32
8cc>\L	2.gg/
8dd>\J	.
4ee>\	.
4dd>\	.
=33	=33
2.dd>\	8ff/L
.	8ee/
.	8ff/
.	8aa/
.	8gg/
.	8ff/J
=34	=34
8cc>\L	2.ee/
8b>\	.
8cc>\	.
8ee>\	.
8dd>\	.
8cc>\J	.
=35	=35
2.b>\	8dd/L
.	8cc#X/
.	8dd/
.	8ff/
.	8ee/
.	8dd/J
=36	=36
8a>\L	2.cc/
8g>\	.
8a>\	.
8cc>\	.
8b>\	.
8a>\J	.
=37	=37
2.g>\	8b/L
.	8a/
.	8b/
.	8cc/
.	8dd/
.	8ee/J
=38	=38
8f#X>\L	2.cc/
8e>\	.
8f#>\	.
8g>\	.
8a>\	.
8b>\J	.
!!LO:LB:g=original
=39	=39
2.g>\	8b/L
.	8cc/J
.	4dd/
.	4ee/
=40	=40
8fn>\L	4dd/
8g>\J	.
4a>\	4.cc/
4b>\	.
.	8dd/
=41	=41
4a>\	8cc/L
.	8dd/
4.g>\	8ee/
.	8ff/
.	8gg/
8a>\	8ff/J
=42	=42
8g>\L	2.dd/
8a>\	.
8b>\	.
8cc>\	.
8dd>\	.
8cc>\J	.
=43	=43
!!LO:TX:a:t=I
*>D1	*>D1
2.a>\	8cc/L
.	8dd/J
.	4ee/
.	4ff/
=44:|!	=44:|!
!!LO:TX:a:t=II
*>D2	*>D2
2.a>\	8ee/L
.	8ff/
.	8ee/
.	8dd/
.	8cc/
.	8dd/J
=45	=45
*>E	*>E
8b>\L	4dd/
8cc>\	.
8b>\	4.gg/
8a>\	.
8g>\	.
8a>\J	8ff/
=46	=46
4a>\	8ff/L
.	8gg/
4.dd>\	8aa/
.	8gg/
.	8ff/
8cc>\	8ee/J
!!LO:PB:g=original
=47	=47
8cc>\L	4ee/
8dd>\	.
8ee>\	4.aa/
8dd>\	.
8cc>\	.
8b>\J	8gg/
=48	=48
4b>\	8gg/L
.	8aa/
4.ee>\	8gg/
.	8ff/
.	8ee/
8dd>\	8ff/J
=49	=49
8dd>\L	4ff/
8ee>\	.
8dd>\	4.ff/
8cc>\	.
8b>\	.
8cc>\J	8ee/
=50	=50
4cc>\	8ee/L
.	8ff/
4.cc>\	8gg/
.	8ff/
.	8ee/
8b>\	8dd/J
=51	=51
8b>\L	2ff/
8cc>\	.
8dd>\	.
8cc>\	.
8b>\	4dd/
8a>\J	.
=52	=52
!	!LO:TX:a:t=Thema
2cc>\	8cc/L
.	8dd/J
.	4ee/
4a>\	4ff/
=53	=53
8g>\L	4gg/
8a>\J	.
4b>\	4.ff/
4cc>\	.
.	8ee/
=54	=54
4dd>\	8ff/L
.	8gg/J
4.cc>\	4aa/
.	4gg/
8b>\	.
!!LO:LB:g=original
=55	=55
8cc>\L	2.gg/
8dd>\J	.
4.ee>\	.
8dd>\	.
=56	=56
2.dd>\	8ff/L
.	8gg/J
.	4aa/
.	4gg/
=57	=57
8cc>\L	2.gg/
8dd>\J	.
4ee>\	.
4dd>\	.
=58	=58
2.dd>\	8ff/L
.	8ee/
.	8ff/
.	8aa/
.	8gg/
.	8ff/J
=59	=59
8cc>\L	2.ee/
8b>\	.
8cc>\	.
8ee>\	.
8dd>\	.
8cc>\J	.
=60	=60
2.b>\	8dd/L
.	8cc#X/
.	8dd/
.	8ff/
.	8ee/
.	8dd/J
=61	=61
8a>\L	2.cc/
8g>\	.
8a>\	.
8cc>\	.
8b>\	.
8a>\J	.
=62	=62
2.g>\	8b/L
.	8a/
.	8b/
.	8cc/
.	8dd/
.	8ee/J
!!LO:LB:g=original
=63	=63
8f#X>\L	2.cc/
8e>\	.
8f#>\	.
8g>\	.
8a>\	.
8b>\J	.
=64	=64
2.g>\	8b/L
.	8cc/J
.	4dd/
.	4ee/
=65	=65
8fn>\L	4dd/
8g>\J	.
4a>\	4.cc/
4b>\	.
.	8dd/
=66	=66
4cc>\	8cc/L
.	8dd/
8b>\L	8ee/
8a>\J	8ff/J
4g>\	4gg/
=67	=67
2cc>;<\	2ee;/
==	==
*-	*-
!!!system-decoration: {(s1,s2)}
!!!RDF**kern: > = above
!!!RDF**kern: < = below
!!!RDF**kern: @ = marked note, color=grey
!!!ENC: Anastazja Marusiak
!!!END: 2021-10-22
!!!ENC: Marta Lawrence
!!!END: 2021-10-23
